icon-themes/sifr_svg/sfx2/res/symphony/morebutton.svg

<svg viewBox="0 0 11 11" xmlns="http://www.w3.org/2000/svg"><g fill="#555753"><path d="m1 1v2h9v-2z" opacity=".35"/><path d="m0 0v10h11v-10zm1 1h9v2h-9zm0 3h9v5h-9zm2 2v1h1v-1zm2 0v1h1v-1zm2 0v1h1v-1z"/></g></svg>

<svg xmlns="http://www.w3.org/2000/svg" viewBox="0 0 11 11">
  <path
     style="opacity:0.35;fill:#555753"
     d="M 1 1 L 1 3 L 10 3 L 10 1 L 1 1 z "
     />
  <path
     style="fill:#555753"
     d="M 0,0 V 10 H 11 V 0 Z m 1,1 h 9 V 3 H 1 Z m 0,3 h 9 V 9 H 1 Z M 3,6 V 7 H 4 V 6 Z M 5,6 V 7 H 6 V 6 Z M 7,6 V 7 H 8 V 6 Z"
     />
</svg>
